svg/thunder.svg

<svg xmlns="http://www.w3.org/2000/svg" viewBox="0 0 34 64" enable-background="new 0 0 34 64"><style type="text/css">.st0{fill:#343434;}</style><title>thunder</title><desc>Created with Sketch.</desc><path class="st0" d="M34 25.6h-16v-25.6l-18 38.4h16v25.6l18-38.4zm-27.7 8.8l7.7-16.4v11.6h13.7l-7.7 16.4v-11.6h-13.7z"/></svg>

<?xml version="1.0" encoding="utf-8"?>
<!-- Generator: Adobe Illustrator 21.0.0, SVG Export Plug-In . SVG Version: 6.00 Build 0)  -->
<svg version="1.1" id="Layer_1" xmlns="http://www.w3.org/2000/svg" xmlns:xlink="http://www.w3.org/1999/xlink" x="0px" y="0px"
	 viewBox="0 0 34 64" style="enable-background:new 0 0 34 64;" xml:space="preserve">
<style type="text/css">
	.st0{fill:#343434;}
</style>
<title>thunder</title>
<desc>Created with Sketch.</desc>
<path class="st0" d="M34,25.6H18V0L0,38.4h16V64L34,25.6z M6.3,34.4L14,18v11.6h13.7L20,46V34.4H6.3z"/>
</svg>
